icon-themes/sifr_svg/cmd/sc_splitwindow.svg

<svg viewBox="0 0 16 16" xmlns="http://www.w3.org/2000/svg"><path d="m7 0v3h2v-3zm-6 1v14h5v-2h-3v-8h3v-4zm9 0v4h3v8h-3v2h5v-14zm-3 3v3h2v-3zm0 4v3h2v-3zm0 4v4h2v-4z" fill="#555753"/></svg>

<svg xmlns="http://www.w3.org/2000/svg" viewBox="0 0 16 16">
  <path
     style="fill:#555753"
     d="M 7 0 L 7 3 L 9 3 L 9 0 L 7 0 z M 1 1 L 1 15 L 6 15 L 6 13 L 3 13 L 3 5 L 6 5 L 6 1 L 1 1 z M 10 1 L 10 5 L 13 5 L 13 13 L 10 13 L 10 15 L 15 15 L 15 1 L 10 1 z M 7 4 L 7 7 L 9 7 L 9 4 L 7 4 z M 7 8 L 7 11 L 9 11 L 9 8 L 7 8 z M 7 12 L 7 16 L 9 16 L 9 12 L 7 12 z "
     />
</svg>
